-----BEGIN PGP SIGNATURE-----

iQJFBAABCAAvFiEEFRkdBbXPlW/jfJWWIXbEpdAepSQFAmprdQERHGtuc3RxcUBn
bWFpbC5jb20ACgkQIXbEpdAepSQRvA/+NbVtRXBnW09SoZhDeLAnWHwkZa/WaP9a
TVS6Ktqz6GQzpF9QA/txpNPo5bhaDCjccpMCFlIk0V1sRX3n9ChM4Hql09YAn0UN
zVZQjsh0n3RKuSZiS1QnLU6kSumB0S5D8luQDJsFIorO2qEPl6zbRW8zItLQvMqz
arPlJ6AX8+mnE87WeUOhB5CMeUgBxcLk8GROgKG4av0i2byVht0Vsfci6fxxPmMA
aMGkBaFTdStC1IzwRDsbzbq0bvQadxXuvAXUWcEcJJMyCjHw9FFykEXrVPNshxHv
6Bxhielef+bjaF0U6qm50mOj+uKPbvqjwK5FH/u5mkVo1JtdaJEkFXY6ccaq0rR+
X6ajfxe1arvz5JY+o2qV9GbukNkdAYkjfvXRja78DtUIWXOp5ePBlxsVn01tD7qj
g0nY9ryDQ7g/tKMGj11Bjpqd3IW96SEA9qjNof/tAM5LrfdDdATRr1HK+YwM3OJX
dyikva6+3drI2XWgtmJa1AYGCglAcU3c3b4fTcuIUeE8qSqjkmTck2UQDCHIdC0R
FgZK2bxztCX5OJ58vNBm0g+YAV2Tw7id8BXGvhHmNQB6TGcghLA4jouewYnyiUib
A2YnfaG3O1XxYm4Ehmis+xGb6/cw0QGf40iT2UTtcwWmibrkafoazQUkOL6h8wJp
28EzO5N30r4=
=N+Fy
-----END PGP SIGNATURE-----
